Pub Folder/attach/mscz.svg

<svg width="16" height="16" xmlns="http://www.w3.org/2000/svg" fill-rule="evenodd" clip-rule="evenodd" stroke-linejoin="round" stroke-miterlimit="2"><g transform="matrix(.02832 0 0 .02884 .763 1)"><path d="M432.102 485.516H79V0h273.656l79.446 79.449v406.067z" fill="url(#_Linear1)" fill-rule="nonzero"/><clipPath id="a"><path d="M432.102 485.516H79V0h273.656l79.446 79.449v406.067z" clip-rule="nonzero"/></clipPath><g clip-path="url(#a)"><path d="M352.656 0v79.449h79.446L352.656 0z" fill="#2690e7" fill-rule="nonzero"/><path d="M353.225-15.596l.707.041.706.071.701.102.696.133.689.163.682.194.671.222.661.253.649.28.635.309.621.337.605.363.588.39.569.415.55.439.53.463.508.486 79.445 79.449.482.504.459.524.434.544.41.562.384.579.357.595.33.61.303.624.274.637.245.648.215.657.186.667.155.674.125.68.094.685.064.688.032.69.001.692-.031.69-.061.688-.092.686-.123.68-.154.674-.184.667-.213.659-.244.648-.272.638-.3.624-.329.611-.356.597-.382.58-.408.563-.433.545-.457.525-.481.505-.502.483-.524.462-.545.438-.563.413-.582.389-.598.364-.614.337-.629.31-.643.282-.654.254-.665.225-.675.196-.683.167-.689.137-.696.107-.699.076-.702.046-.703.015h-79.446l-.713-.016-.711-.047-.709-.078-.704-.11-.699-.14-.691-.171-.683-.202-.673-.231-.662-.261-.649-.289-.635-.318-.621-.346-.603-.373-.586-.398-.568-.425-.547-.448-.526-.473-.505-.495-.481-.517-.457-.538-.432-.557-.406-.576-.379-.593-.352-.609-.324-.624-.295-.637-.265-.65-.236-.661-.205-.671-.174-.679-.143-.686-.112-.692-.079-.696-.048-.699-.016-.7V0l.015-.696.048-.695.079-.692.11-.688.142-.682.172-.676.203-.667.233-.658.262-.647.292-.635.32-.621.348-.607.376-.59.401-.574.428-.556.452-.536.476-.516.499-.495.521-.472.543-.449.561-.424.581-.4.598-.374.615-.347.63-.32.643-.292.657-.264.667-.235.678-.205.686-.175.694-.145.699-.114.704-.084.707-.053.709-.021.709.009zm-.569 95.045h79.446L352.656 0v79.449z"/><path d="M127.347 370.959c-2.506-.616-5.011-2.461-6.264-5.128-.627-1.23-.627-1.23-.627-41.426 0-43.478-.208-42.042 1.044-49.22 3.968-23.585 17.54-38.146 38.63-41.837 14.826-2.666 30.487 1.23 42.807 10.254 1.67 1.23 5.43 4.922 6.682 6.563l1.253 1.23s.626-.615 1.253-1.435c1.67-2.051 5.638-5.948 8.352-7.794 7.726-5.742 15.661-9.023 24.64-10.664 2.715-.41 10.65-.41 13.573 0 11.902 1.64 22.134 6.973 29.651 15.381 7.518 8.819 11.903 20.304 12.947 33.839.208 1.64.208 7.383.417 12.92.21 12.51.627 23.585.627 24.405.208.205.208 1.436.417 2.461.418 2.871 1.462 7.383 2.297 10.05 2.088 5.947 4.803 10.048 8.98 14.15 4.802 4.307 10.23 6.973 17.748 8.408 2.715.41 8.98.41 11.694 0 7.517-1.64 13.364-4.511 18.584-9.433 2.506-2.667 4.594-5.538 6.055-8.204 1.671-3.281 3.133-7.998 3.76-11.895.208-1.025.417-2.256.626-2.666 0-.41.208-17.842.208-38.555.21-37.736.21-37.736.627-38.966 1.253-3.692 4.594-5.742 8.979-5.537 3.967.205 6.89 2.256 7.935 5.947.417 1.23.417 1.846.417 37.325 0 37.325 0 38.35-.835 43.888-1.253 8.408-4.385 17.022-8.979 23.585-11.067 16.406-31.74 25.02-51.785 21.738-11.485-1.845-20.882-6.357-28.399-13.74-2.923-2.871-4.176-4.512-6.264-7.178-3.759-5.742-6.473-12.305-8.353-20.303-1.253-5.538-1.67-11.69-1.879-23.38-.418-13.74-.626-23.79-.835-26.045-1.462-16.817-11.067-27.071-27.146-29.327-2.297-.41-8.352-.205-10.44.205-12.738 2.871-22.134 12.715-25.058 25.84-.835 4.307-.835 4.307-.835 46.76 0 33.428 0 40.4-.209 41.426-1.044 3.281-3.758 5.742-7.308 6.358-4.594.82-8.98-2.051-10.232-6.358-.209-1.025-.209-7.998-.209-41.427 0-43.272 0-42.862-1.044-47.374-1.67-6.973-4.594-12.1-9.396-16.817-4.177-4.101-9.397-6.973-15.453-8.408-2.088-.41-8.143-.615-10.649-.205-5.22.615-9.397 2.05-13.155 4.512-5.847 3.896-9.814 10.049-12.111 18.457-.627 2.666-.835 3.486-1.462 7.588-.209 1.846-.209 7.178-.418 42.657 0 40.607 0 40.607-.626 41.632-.626 1.64-1.462 2.871-2.506 3.692-2.088 1.845-4.802 2.666-7.726 2.05zM336.16 219.607c-4.594-.615-8.352-3.896-9.605-8.408-.209-.82-.418-1.846-.418-3.076 0-3.282 1.044-5.743 3.341-8.204 2.506-2.256 5.012-3.281 8.353-3.281 3.55 0 6.055 1.025 8.561 3.486 2.088 2.461 3.132 4.922 3.132 7.999 0 3.076-1.044 5.742-3.34 8.203-2.715 2.461-6.265 3.691-10.024 3.281zm-46.565-2.256c-3.132-.41-5.429-2.666-6.682-5.947-.417-1.025-.417-1.436-.417-5.127 0-14.15 5.637-27.686 15.66-37.53 15.87-15.792 41.136-19.893 61.809-10.05 5.22 2.667 8.979 5.128 13.155 9.024 10.65 10.05 16.705 23.995 16.705 38.761 0 2.871 0 3.486-.418 4.717-.626 1.64-1.253 2.871-2.505 3.896-3.968 3.692-10.232 2.872-13.156-1.435-1.252-1.64-1.461-2.871-1.67-6.563-.418-6.562-1.462-10.87-3.968-15.996-4.802-9.64-12.737-16.407-22.551-18.868-11.485-2.871-22.97-.41-31.74 6.563-5.011 3.896-9.187 9.844-11.484 16.201-1.253 3.897-1.88 6.563-2.088 11.28-.21 1.846-.418 3.896-.627 4.512-.835 3.486-3.55 5.947-7.1 6.562-1.252.205-1.67.205-2.923 0z" fill="#fff" fill-rule="nonzero"/></g><path d="M354.407-17.254l1.733.255 1.698.423 1.648.586 1.581.744 1.497.894 1.4 1.035 1.289 1.167 79.445 79.449 1.139 1.256 1.01 1.359.872 1.448.724 1.524.571 1.586.411 1.633.249 1.664.083 1.68v406.067l-.097 1.812-.289 1.793-.478 1.753-.663 1.694-.839 1.618-1.006 1.522-1.163 1.41-1.307 1.284-1.436 1.142-1.55.988-1.646.824-1.726.651-1.785.47-1.825.283-1.845.095H79l-1.845-.095-1.826-.283-1.785-.47-1.725-.651-1.647-.824-1.549-.988-1.437-1.142-1.306-1.284-1.163-1.41-1.007-1.522-.839-1.618-.662-1.694-.478-1.753-.289-1.793-.097-1.812V0l.097-1.813.289-1.792.478-1.753.662-1.695.839-1.617 1.007-1.522 1.163-1.411 1.306-1.283 1.437-1.142 1.549-.989 1.647-.824 1.725-.65 1.785-.47 1.826-.284L79-17.34h273.656l1.751.086zM79 0v485.516h353.102V79.449L352.656 0H79z"/></g><defs><linearGradient id="_Linear1" x1="0" y1="0" x2="1" y2="0" gradientUnits="userSpaceOnUse" gradientTransform="matrix(0 -485.516 692.079 0 255.551 485.516)"><stop offset="0" stop-color="#268fe7"/><stop offset=".16" stop-color="#1863a0"/><stop offset=".35" stop-color="#0d3e65"/><stop offset="1" stop-color="#093050"/></linearGradient></defs></svg>

<?xml version="1.0" encoding="UTF-8" standalone="no"?>
<!DOCTYPE svg PUBLIC "-//W3C//DTD SVG 1.1//EN" "http://www.w3.org/Graphics/SVG/1.1/DTD/svg11.dtd">
<svg width="100%" height="100%" viewBox="0 0 16 16" version="1.1" xmlns="http://www.w3.org/2000/svg" xmlns:xlink="http://www.w3.org/1999/xlink" xml:space="preserve" xmlns:serif="http://www.serif.com/" style="fill-rule:evenodd;clip-rule:evenodd;stroke-linejoin:round;stroke-miterlimit:2;">
    <g id="MuseScore-Icon" serif:id="MuseScore Icon" transform="matrix(0.0283205,0,0,0.0288353,0.762683,1)">
        <path d="M432.102,485.516L79,485.516L79,0L352.656,0L432.102,79.449L432.102,485.516Z" style="fill:url(#_Linear1);fill-rule:nonzero;"/>
        <clipPath id="_clip2">
            <path d="M432.102,485.516L79,485.516L79,0L352.656,0L432.102,79.449L432.102,485.516Z" clip-rule="nonzero"/>
        </clipPath>
        <g clip-path="url(#_clip2)">
            <path d="M352.656,0L352.656,79.449L432.102,79.449L352.656,0Z" style="fill:rgb(38,144,231);fill-rule:nonzero;"/>
            <path d="M353.225,-15.596L353.932,-15.555L354.638,-15.484L355.339,-15.382L356.035,-15.249L356.724,-15.086L357.406,-14.892L358.077,-14.67L358.738,-14.417L359.387,-14.137L360.022,-13.828L360.643,-13.491L361.248,-13.128L361.836,-12.738L362.405,-12.323L362.955,-11.884L363.485,-11.421L363.993,-10.935L443.438,68.514L443.92,69.018L444.379,69.542L444.813,70.086L445.223,70.648L445.607,71.227L445.964,71.822L446.294,72.432L446.597,73.056L446.871,73.693L447.116,74.341L447.331,74.998L447.517,75.665L447.672,76.339L447.797,77.019L447.891,77.704L447.955,78.392L447.987,79.082L447.988,79.774L447.957,80.464L447.896,81.152L447.804,81.838L447.681,82.518L447.527,83.192L447.343,83.859L447.13,84.518L446.886,85.166L446.614,85.804L446.314,86.428L445.985,87.039L445.629,87.636L445.247,88.216L444.839,88.779L444.406,89.324L443.949,89.849L443.468,90.354L442.966,90.837L442.442,91.299L441.897,91.737L441.334,92.15L440.752,92.539L440.154,92.903L439.54,93.24L438.911,93.55L438.268,93.832L437.614,94.086L436.949,94.311L436.274,94.507L435.591,94.674L434.902,94.811L434.206,94.918L433.507,94.994L432.805,95.04L432.102,95.055L352.656,95.055L351.943,95.039L351.232,94.992L350.523,94.914L349.819,94.804L349.12,94.664L348.429,94.493L347.746,94.291L347.073,94.06L346.411,93.799L345.762,93.51L345.127,93.192L344.506,92.846L343.903,92.473L343.317,92.075L342.749,91.65L342.202,91.202L341.676,90.729L341.171,90.234L340.69,89.717L340.233,89.179L339.801,88.622L339.395,88.046L339.016,87.453L338.664,86.844L338.34,86.22L338.045,85.583L337.78,84.933L337.544,84.272L337.339,83.601L337.165,82.922L337.022,82.236L336.91,81.544L336.831,80.848L336.783,80.149L336.767,79.449L336.767,0L336.782,-0.696L336.83,-1.391L336.909,-2.083L337.019,-2.771L337.161,-3.453L337.333,-4.129L337.536,-4.796L337.769,-5.454L338.031,-6.101L338.323,-6.736L338.643,-7.357L338.991,-7.964L339.367,-8.554L339.768,-9.128L340.196,-9.684L340.648,-10.22L341.124,-10.736L341.623,-11.231L342.144,-11.703L342.687,-12.152L343.248,-12.576L343.829,-12.976L344.427,-13.35L345.042,-13.697L345.672,-14.017L346.315,-14.309L346.972,-14.573L347.639,-14.808L348.317,-15.013L349.003,-15.188L349.697,-15.333L350.396,-15.447L351.1,-15.531L351.807,-15.584L352.516,-15.605L353.225,-15.596ZM352.656,79.449L432.102,79.449L352.656,0L352.656,79.449Z"/>
            <g transform="matrix(0.208812,0,0,0.205083,46.9546,75.0238)">
                <path d="M385,1443C373,1440 361,1431 355,1418C352,1412 352,1412 352,1216C352,1004 351,1011 357,976C376,861 441,790 542,772C613,759 688,778 747,822C755,828 773,846 779,854C782,857 785,860 785,860C785,860 788,857 791,853C799,843 818,824 831,815C868,787 906,771 949,763C962,761 1000,761 1014,763C1071,771 1120,797 1156,838C1192,881 1213,937 1218,1003C1219,1011 1219,1039 1220,1066C1221,1127 1223,1181 1223,1185C1224,1186 1224,1192 1225,1197C1227,1211 1232,1233 1236,1246C1246,1275 1259,1295 1279,1315C1302,1336 1328,1349 1364,1356C1377,1358 1407,1358 1420,1356C1456,1348 1484,1334 1509,1310C1521,1297 1531,1283 1538,1270C1546,1254 1553,1231 1556,1212C1557,1207 1558,1201 1559,1199C1559,1197 1560,1112 1560,1011C1561,827 1561,827 1563,821C1569,803 1585,793 1606,794C1625,795 1639,805 1644,823C1646,829 1646,832 1646,1005C1646,1187 1646,1192 1642,1219C1636,1260 1621,1302 1599,1334C1546,1414 1447,1456 1351,1440C1296,1431 1251,1409 1215,1373C1201,1359 1195,1351 1185,1338C1167,1310 1154,1278 1145,1239C1139,1212 1137,1182 1136,1125C1134,1058 1133,1009 1132,998C1125,916 1079,866 1002,855C991,853 962,854 952,856C891,870 846,918 832,982C828,1003 828,1003 828,1210C828,1373 828,1407 827,1412C822,1428 809,1440 792,1443C770,1447 749,1433 743,1412C742,1407 742,1373 742,1210C742,999 742,1001 737,979C729,945 715,920 692,897C672,877 647,863 618,856C608,854 579,853 567,855C542,858 522,865 504,877C476,896 457,926 446,967C443,980 442,984 439,1004C438,1013 438,1039 437,1212C437,1410 437,1410 434,1415C431,1423 427,1429 422,1433C412,1442 399,1446 385,1443ZM1385,705C1363,702 1345,686 1339,664C1338,660 1337,655 1337,649C1337,633 1342,621 1353,609C1365,598 1377,593 1393,593C1410,593 1422,598 1434,610C1444,622 1449,634 1449,649C1449,664 1444,677 1433,689C1420,701 1403,707 1385,705ZM1162,694C1147,692 1136,681 1130,665C1128,660 1128,658 1128,640C1128,571 1155,505 1203,457C1279,380 1400,360 1499,408C1524,421 1542,433 1562,452C1613,501 1642,569 1642,641C1642,655 1642,658 1640,664C1637,672 1634,678 1628,683C1609,701 1579,697 1565,676C1559,668 1558,662 1557,644C1555,612 1550,591 1538,566C1515,519 1477,486 1430,474C1375,460 1320,472 1278,506C1254,525 1234,554 1223,585C1217,604 1214,617 1213,640C1212,649 1211,659 1210,662C1206,679 1193,691 1176,694C1170,695 1168,695 1162,694Z" style="fill:white;fill-rule:nonzero;"/>
            </g>
        </g>
        <path d="M354.407,-17.254L356.14,-16.999L357.838,-16.576L359.486,-15.99L361.067,-15.246L362.564,-14.352L363.964,-13.317L365.253,-12.15L444.698,67.299L445.837,68.555L446.847,69.914L447.719,71.362L448.443,72.886L449.014,74.472L449.425,76.105L449.674,77.769L449.757,79.449L449.757,485.516L449.66,487.328L449.371,489.121L448.893,490.874L448.23,492.568L447.391,494.186L446.385,495.708L445.222,497.118L443.915,498.402L442.479,499.544L440.929,500.532L439.283,501.356L437.557,502.007L435.772,502.477L433.947,502.76L432.102,502.855L79,502.855L77.155,502.76L75.329,502.477L73.544,502.007L71.819,501.356L70.172,500.532L68.623,499.544L67.186,498.402L65.88,497.118L64.717,495.708L63.71,494.186L62.871,492.568L62.209,490.874L61.731,489.121L61.442,487.328L61.345,485.516L61.345,0L61.442,-1.813L61.731,-3.605L62.209,-5.358L62.871,-7.053L63.71,-8.67L64.717,-10.192L65.88,-11.603L67.186,-12.886L68.623,-14.028L70.172,-15.017L71.819,-15.841L73.544,-16.491L75.329,-16.961L77.155,-17.245L79,-17.34L352.656,-17.34L354.407,-17.254ZM79,0L79,485.516L432.102,485.516L432.102,79.449L352.656,0L79,0Z"/>
    </g>
    <defs>
        <linearGradient id="_Linear1" x1="0" y1="0" x2="1" y2="0" gradientUnits="userSpaceOnUse" gradientTransform="matrix(3.02697e-14,-485.516,692.079,4.1621e-14,255.551,485.516)"><stop offset="0" style="stop-color:rgb(38,143,231);stop-opacity:1"/><stop offset="0.16" style="stop-color:rgb(24,99,160);stop-opacity:1"/><stop offset="0.35" style="stop-color:rgb(13,62,101);stop-opacity:1"/><stop offset="1" style="stop-color:rgb(9,48,80);stop-opacity:1"/></linearGradient>
    </defs>
</svg>
